wp-content/themes/blackfoot/assets/img/icon-stat-miles.svg

<?xml version="1.0" encoding="UTF-8" standalone="no"?>
<svg width="36px" height="36px" viewBox="0 0 36 36" version="1.1" xmlns="http://www.w3.org/2000/svg" xmlns:xlink="http://www.w3.org/1999/xlink" xmlns:sketch="http://www.bohemiancoding.com/sketch/ns">
    <!-- Generator: Sketch 3.3.1 (12002) - http://www.bohemiancoding.com/sketch -->
    <title>Oval 7 Copy 2 + Imported Layers</title>
    <desc>Created with Sketch.</desc>
    <defs></defs>
    <g id="Water" stroke="none" stroke-width="1" fill="none" fill-rule="evenodd" sketch:type="MSPage">
        <g sketch:type="MSArtboardGroup" transform="translate(-413.000000, -1461.000000)" id="THE-STATS">
            <g sketch:type="MSLayerGroup" transform="translate(413.000000, 1148.000000)">
                <g id="Oval-7-Copy-2-+-Imported-Layers" transform="translate(0.000000, 313.000000)" sketch:type="MSShapeGroup">
                    <circle id="Oval-7-Copy-2" fill="#999490" cx="18" cy="18" r="18"></circle>
                    <path d="M25.9711746,24.7552543 C25.8104813,24.491521 25.4596546,23.896281 25.053628,23.2075076 C24.483228,22.239361 23.7717613,21.0356943 23.312988,20.279761 C22.8385746,19.498681 21.8826946,18.9331876 21.0393613,18.4336276 C20.3720546,18.0383343 19.740628,17.6645076 19.5072546,17.2790276 C19.347788,17.016521 18.832588,16.1707343 18.1643613,15.073481 C19.934748,12.1555476 22.488668,7.9459343 22.6444546,7.68956097 C22.773868,7.47642764 22.706708,7.1961343 22.492348,7.06672097 C22.2792146,6.93730764 21.9989213,7.00446764 21.869508,7.21882764 C21.833628,7.27740097 19.423228,11.234321 17.6240146,14.188441 C15.8248013,11.234321 13.4144013,7.27740097 13.3785213,7.21760097 C13.249108,7.00446764 12.9688146,6.93608097 12.7556813,7.0654943 C12.542548,7.19490764 12.4741613,7.47520097 12.6035746,7.6883343 C12.7593613,7.94470764 15.3132813,12.154321 17.0848946,15.073481 C16.4163613,16.1707343 15.9026946,17.0152943 15.7420013,17.2790276 C15.5074013,17.6645076 14.8772013,18.0383343 14.2098946,18.4336276 C13.3665613,18.9331876 12.4106813,19.4999076 11.936268,20.279761 C11.476268,21.0356943 10.766028,22.2405876 10.195628,23.2075076 C9.7896013,23.896281 9.43877463,24.4902943 9.2780813,24.7552543 C9.09377463,25.058241 8.9091613,25.4164276 9.04930796,25.8307343 C9.1824013,26.223881 9.5789213,26.6035343 10.3357746,27.0635343 C11.0929346,27.5235343 11.6127346,27.7007876 12.0224413,27.6385343 C12.456068,27.572601 12.6885213,27.243241 12.8731346,26.9402543 C13.0335213,26.676521 13.4002946,26.0907876 13.824108,25.4127476 C14.4208813,24.4605476 15.1624013,23.2755876 15.6224013,22.519961 C16.0968146,21.738881 16.1602946,20.6305876 16.215188,19.6520143 C16.258428,18.8770676 16.3004413,18.146281 16.5350413,17.7592676 C16.675188,17.5292676 17.083668,16.857361 17.626468,15.9625076 C18.1689613,16.857361 18.5774413,17.5292676 18.717588,17.7592676 C18.9524946,18.1450543 18.9932813,18.8770676 19.0374413,19.6520143 C19.0926413,20.6305876 19.1548946,21.7401076 19.6305346,22.519961 C20.0905346,23.2755876 20.8320546,24.4605476 21.4285213,25.4127476 C21.8526413,26.0907876 22.219108,26.6752943 22.3798013,26.9402543 C22.564108,27.243241 22.7965613,27.5713743 23.230188,27.6385343 C23.6398946,27.7007876 24.1596946,27.5235343 24.9168546,27.0635343 C25.6740146,26.6035343 26.0705346,26.223881 26.203628,25.8307343 C26.3400946,25.4164276 26.1554813,25.058241 25.9711746,24.7552543 L25.9711746,24.7552543 Z" id="Imported-Layers" fill="#FFFFFF"></path>
                </g>
            </g>
        </g>
    </g>
</svg>

<svg xmlns="http://www.w3.org/2000/svg" width="36" height="36"><title>Oval 7 Copy 2 + Imported Layers</title><desc>Created with Sketch.</desc><g fill="none"><g><g transform="translate(0 0)"><circle cx="18" cy="18" r="18" fill="#999490"/><path fill="#fff" d="M25.97 24.76c-.16-.27-.5-.86-.92-1.55-.57-.96-1.28-2.16-1.74-2.92-.46-.78-1.42-1.35-2.26-1.85-.67-.4-1.3-.77-1.53-1.15-.15-.26-.67-1.1-1.34-2.2 1.77-2.92 4.33-7.13 4.48-7.4.13-.2.07-.48-.15-.6-.22-.14-.5-.08-.63.14-.04.06-2.45 4-4.25 6.97-1.8-2.97-4.2-6.92-4.24-6.98-.13-.22-.4-.28-.62-.15-.22.12-.3.4-.16.62.16.24 2.7 4.45 4.48 7.37-.66 1.1-1.18 1.95-1.34 2.2-.23.4-.86.77-1.53 1.16-.83.5-1.8 1.07-2.26 1.85-.46.76-1.17 1.96-1.74 2.93-.4.7-.76 1.3-.92 1.56-.2.3-.37.66-.23 1.07.13.4.53.77 1.3 1.23.74.46 1.26.64 1.67.58.44-.07.67-.4.85-.7.16-.26.53-.85.95-1.53.6-.94 1.34-2.12 1.8-2.88.48-.78.54-1.9.6-2.87.04-.77.08-1.5.32-1.9.14-.22.54-.9 1.1-1.8.53.9.94 1.58 1.08 1.8.23.4.27 1.13.32 1.9.05.98.1 2.1.6 2.87.45.76 1.2 1.94 1.8 2.9.4.67.78 1.26.94 1.52.18.3.42.63.85.7.4.06.93-.12 1.7-.58.74-.46 1.14-.84 1.27-1.23.14-.4-.04-.77-.23-1.07z"/></g></g></g></svg>
